X: 4250
T: LESLIE'S MARCH
%R: march, jig
B: James Kerr "Merry Melodies" v.4 p.27 #250
Z: 2016 John Chambers <jc:trillian.mit.edu>
M: 6/8
L: 1/8
K: D
|:\
d3  d3  | dcB ABc | dcB ABc | def e2d |\
e3  e3  | fed eag | fed BAB | def e2d :|
|:\
fdd eAA | fed eAA | gfe fBB | gee fBB |\
fdd eAA | fed eag | fed BAB | def e2d :|

%%sep 1 1 500
%%sep 1 1 500

